watermark/watermark-origin.svg

<svg width="942.84" height="1024" fill="none" xmlns="http://www.w3.org/2000/svg"><g mask="url(#prefix__mask6_85)" fill-opacity=".5" fill-rule="evenodd" clip-path="url(#prefix__clip6_39)"><path d="M819.28 3.72l116.15 87.52c7.35 5.55 8.83 16.02 3.28 23.39L662.33 481.4 519.51 373.78 795.9 7.01c5.54-7.37 16.01-8.84 23.38-3.29zM662.33 481.4L554.56 624.41l-35.05-250.63L662.33 481.4z" fill="#299AD9"/><path d="M563.61 686.26l107.77-143.02 35.05 250.64-142.82-107.62z" fill="#1BC4F9"/><path d="M736.08 1004.63L714.95 855.3 571.96 747.54l26.64 188.38 111.5 84.03c11.62 8.76 28.02-.9 25.98-15.32z" fill="#AD73FB"/><path d="M14.07 460.55l463.36-64.26 71.51 502.21L6.5 489.73c-11.61-8.74-6.82-27.19 7.57-29.18z" fill="#90E2FC"/></g></svg>

<svg width="942.839783" height="1024.000000" viewBox="0 0 942.84 1024" fill="none" xmlns="http://www.w3.org/2000/svg" xmlns:xlink="http://www.w3.org/1999/xlink">
	<defs>
		<clipPath id="clip6_39">
			<rect id="watermark-origin" width="942.839783" height="1024.000000" fill="white" fill-opacity="0"/>
		</clipPath>
	</defs>
	<g clip-path="url(#clip6_39)">
		<mask id="mask6_85" mask-type="alpha" maskUnits="userSpaceOnUse" x="0.000000" y="0.000000" width="942.839783" height="1024.000000">
			<rect id="rect" width="942.839783" height="1024.000000" fill="#000000" fill-opacity="1.000000"/>
		</mask>
		<g mask="url(#mask6_85)">
			<path id="path" d="M819.28 3.72L935.43 91.24C942.78 96.79 944.26 107.26 938.71 114.63L662.33 481.4L519.51 373.78L795.9 7.01C801.44 -0.36 811.91 -1.83 819.28 3.72ZM662.33 481.4L554.56 624.41L519.51 373.78L662.33 481.4Z" fill="#299AD9" fill-opacity="0.500000" fill-rule="evenodd"/>
			<path id="path" d="M563.61 686.26L671.38 543.24L706.43 793.88L563.61 686.26Z" fill="#1BC4F9" fill-opacity="0.500000" fill-rule="evenodd"/>
			<path id="path" d="M736.08 1004.63L714.95 855.3L571.96 747.54L598.6 935.92L710.1 1019.95C721.72 1028.71 738.12 1019.05 736.08 1004.63Z" fill="#AD73FB" fill-opacity="0.500000" fill-rule="evenodd"/>
			<path id="path" d="M14.07 460.55L477.43 396.29L548.94 898.5L6.5 489.73C-5.11 480.99 -0.32 462.54 14.07 460.55Z" fill="#90E2FC" fill-opacity="0.500000" fill-rule="evenodd"/>
		</g>
	</g>
</svg>
